X:2
T:Morpeth Rant [1]
M:2/4
L:1/8
R:Reel
S:MacDonald – 3rd Collection of Strathspey Reels (c.1792)
Z:AK/Fiddler’s Companion
K:G
(DE/4F/4) | GD/C/ B,/G,/B,/D/ | E/C/E/G/ F/D/F/A/ | B/G/c/A/ d/B/A/G/ | F/G/A/B/ {B}AG/F/ |
GD/C/ B,/G,/B,/D/ | E/C/E/G/ F/D/F/A/ | B/e/d/c/ B/A/G/F/ | GGG :: (de/4f/4) | g/d/B/G/ F/A/c/e/ |
d/B/A/G/ G/F/E/D/ | c/A/c/A/ B/G/B/G/ | {G}FDDE/=F/ | E/C/E/G/ c/B/A/G/ |
F/D/F/A/ (d/c/)(B/A/) | G/g/f/e/ d/c/B/A/ | GGG :|
